X: 127101
T: The NUT. COUNTRY DANCE.
%R: jig
B: James Kerr "Merry Melodies" v.1 p.27 s.1 #1
Z: 2017 John Chambers <jc:trillian.mit.edu>
M: 6/8
L: 1/8
K: A
uE !segno!|\
ABA Adc | cBA uA2uf | fed cBA | cBB uB2uE |\
ABA Adc | cfe eag | gff feG | BAA A2 H:|
uB |\
BcB Bge | ^dBc uB2uB | BcB BGE | GFF uF2uB |\
BcB Bge | ^dBc uB2uB | c^de fed | egf ed"_D.C."B |]

%%sep 1 1 500
%%sep 1 1 500

